X: 25
T:Balada le Ma'ayan
C:Moshe Wilenski 1983
O:Israeli
I:choreographer: S. Maman 1983
F: http://www.youtube.com/watch?v=JmBRVSZk_aw
F: http://www.youtube.com/watch?v=K239iZ-HMBk
Q:1/4=92
L:1/8
M:2/4
K:Dm
 D4            |F4               |D2 DB,         |C4              |\
 B,2 B,G,      |A,2 G,2          | F,2G,2        |A,4             |
%%sep 10 10
 z2 A,2        |: "Dm"DD"Am"ED   | C=B,/C/ "Dm"DE | FF "C"GF      | "C"ED/E/ "F"FE|\
 "Dm"DD "Dm"ED | "C"C3 G        |
 "Dm"AA "C"cB | "Dm"AG/F/ "Dm"GE| "Dm"GF "C"ED  | "C"C=B,/C/ A,A,| "Bb"DF "Em"EC | "Dm"D4  :|
 "Dm" D ^F2 G | "Dm"AB "Dm"AG | AD A2          | "Gm"G3 G      |\
 "Dm"=F2 "Gm"GF| G3 F            | "Dm"DC DC     | A,3A,          |
 "Gm"B,C DG    | "Dm"D3C         | "Gm"B,C DG    | "Dm"A3F        |\
 "Gm"BA Bc     | "Dm"A3F         | "Gm"G4        | "Dm"A4         |



